assets/icons/qvision/border_inner.svg

<svg xmlns="http://www.w3.org/2000/svg" height="24" viewBox="0 0 24 24" width="24"><path d="M0 0h24v24H0z" fill="none"/><path d="M3 21h2v-2H3v2zm4 0h2v-2H7v2zM5 7H3v2h2V7zM3 17h2v-2H3v2zM9 3H7v2h2V3zM5 3H3v2h2V3zm12 0h-2v2h2V3zm2 6h2V7h-2v2zm0-6v2h2V3h-2zm-4 18h2v-2h-2v2zM13 3h-2v8H3v2h8v8h2v-8h8v-2h-8V3zm6 18h2v-2h-2v2zm0-4h2v-2h-2v2z"/></svg>

<svg width="24" height="24" viewBox="0 0 24 24" fill="none" xmlns="http://www.w3.org/2000/svg">
<g clip-path="url(#clip0_147_2541)">
<path d="M3 21H5V19H3V21ZM7 21H9V19H7V21ZM5 7H3V9H5V7ZM3 17H5V15H3V17ZM9 3H7V5H9V3ZM5 3H3V5H5V3ZM17 3H15V5H17V3ZM19 9H21V7H19V9ZM19 3V5H21V3H19ZM15 21H17V19H15V21ZM13 3H11V11H3V13H11V21H13V13H21V11H13V3ZM19 21H21V19H19V21ZM19 17H21V15H19V17Z" fill="#323232"/>
</g>
<defs>
<clipPath id="clip0_147_2541">
<rect width="24" height="24" fill="white"/>
</clipPath>
</defs>
</svg>
